X:95

T:Devil among the Taylors, The [3]

M:6/8

L:1/8

B:Thompson’s Compleat Collection of 200 Favourite Country Dances, vol. 3 (London, 1773)

Z:Transcribed and edited by Flynn Titford-Mock, 2007

Z:abc’s:AK/Fiddler’s Companion

K:A

AcA cAc|ece aea|faf dfd|eae cec|dfd BdB|cec AcA| BdB GBG|A2A [A,3A3]:|
|:efe efe|ded ded|cdc cdc|BcB BcB|efe efe|ded ded|cdc cdc|{c}(B3 B3)|

AcA cAc|ece aea|faf dfd|eae cec|dfd BdB|cec AcA|BdB GBG|A3 [A,3A3]:||

 

DEVIL AMONG THE YEARLINGS. AKA and see "Hell Among(st) the Yearlings [1]."

 

DEVIL AND HIS SISTER, THE. Irish,  Double Jig. Ireland, County Donegal. Caoimhin Mac Aoidh  (1994) relates the story of a Donegal fiddler named Mooney who was in demand for house parties and other events in the northwestern part of the county. Mooney was an affable fellow who "while revelling in fiddle-playing was not the victim of any social excesses."  His wife, however, detested music and fiddle music in particular, as well as being a classical shrew who made Mooney's life miserable with her rants on his perceived shortcomings.  Mooney

                       

DEVIL AND THE DIRK, THE. Scottish, Reel. D Major. Standard tuning. AB (Hardie): AAB (Skinner). Composed by J. Scott Skinner and first published in his Harp and Claymore collection where it is set with numerous variations and arranged by Gavin Greig. Hardie (Caledonian Companion), 1992; pg. 110. Skinner (Harp and Claymore), 1904; pgs. 84-85. Skinner (The Scottish Violinist), pg. 3.

